; G-Code generated by Simplify3D(R) Version 4.1.2
; Apr 21, 2023 at 3:32:38 PM
; Settings Summary
;   processName,Process1
;   applyToModels,xyzCalibration_cube
;   profileName,22IDEX (modified)
;   profileVersion,2023-03-10 13:48:47
;   baseProfile,Default (modified)
;   printMaterial,PLA
;   printQuality,Medium
;   printExtruders,
;   extruderName,Right,Left
;   extruderToolheadNumber,1,0
;   extruderDiameter,0.4,0.4
;   extruderAutoWidth,0,1
;   extruderWidth,0.4,0.48
;   extrusionMultiplier,0.97,1
;   extruderUseRetract,1,1
;   extruderRetractionDistance,2,1
;   extruderExtraRestartDistance,0,0
;   extruderRetractionZLift,0,0
;   extruderRetractionSpeed,1500,600
;   extruderUseCoasting,0,0
;   extruderCoastingDistance,0.2,0.2
;   extruderUseWipe,0,0
;   extruderWipeDistance,0.2,2
;   primaryExtruder,1
;   layerHeight,0.2
;   topSolidLayers,5
;   bottomSolidLayers,3
;   perimeterOutlines,3
;   printPerimetersInsideOut,1
;   startPointOption,3
;   startPointOriginX,0
;   startPointOriginY,0
;   sequentialIslands,0
;   spiralVaseMode,0
;   firstLayerHeightPercentage,100
;   firstLayerWidthPercentage,100
;   firstLayerUnderspeed,0.5
;   useRaft,0
;   raftExtruder,1
;   raftTopLayers,3
;   raftBaseLayers,2
;   raftOffset,3
;   raftSeparationDistance,0.17
;   raftTopInfill,100
;   aboveRaftSpeedMultiplier,0.3
;   useSkirt,1
;   skirtExtruder,1
;   skirtLayers,1
;   skirtOutlines,3
;   skirtOffset,5
;   usePrimePillar,0
;   primePillarExtruder,999
;   primePillarWidth,12
;   primePillarLocation,7
;   primePillarSpeedMultiplier,1
;   useOozeShield,0
;   oozeShieldExtruder,999
;   oozeShieldOffset,2
;   oozeShieldOutlines,1
;   oozeShieldSidewallShape,1
;   oozeShieldSidewallAngle,30
;   oozeShieldSpeedMultiplier,1
;   infillExtruder,1
;   internalInfillPattern,Fast Honeycomb
;   externalInfillPattern,Rectilinear
;   infillPercentage,20
;   outlineOverlapPercentage,50
;   infillExtrusionWidthPercentage,100
;   minInfillLength,5
;   infillLayerInterval,1
;   internalInfillAngles,0
;   overlapInternalInfillAngles,0
;   externalInfillAngles,45,-45
;   generateSupport,0
;   supportExtruder,1
;   supportInfillPercentage,20
;   supportExtraInflation,0
;   supportBaseLayers,0
;   denseSupportExtruder,1
;   denseSupportLayers,3
;   denseSupportInfillPercentage,50
;   supportLayerInterval,1
;   supportHorizontalPartOffset,0.7
;   supportUpperSeparationLayers,1
;   supportLowerSeparationLayers,1
;   supportType,0
;   supportGridSpacing,1
;   maxOverhangAngle,45
;   supportAngles,45
;   temperatureName,Right,Left,Bed
;   temperatureNumber,1,0,2
;   temperatureSetpointCount,1,1,1
;   temperatureSetpointLayers,1,1,1
;   temperatureSetpointTemperatures,0,230,60
;   temperatureStabilizeAtStartup,1,1,1
;   temperatureHeatedBed,0,0,1
;   fanLayers,1,2
;   fanSpeeds,0,50
;   blipFanToFullPower,0
;   adjustSpeedForCooling,0
;   minSpeedLayerTime,15
;   minCoolingSpeedSlowdown,20
;   increaseFanForCooling,0
;   minFanLayerTime,45
;   maxCoolingFanSpeed,100
;   increaseFanForBridging,0
;   bridgingFanSpeed,100
;   use5D,1
;   relativeEdistances,1
;   allowEaxisZeroing,1
;   independentExtruderAxes,0
;   includeM10123,0
;   stickySupport,1
;   applyToolheadOffsets,0
;   gcodeXoffset,0
;   gcodeYoffset,0
;   gcodeZoffset,0
;   overrideMachineDefinition,1
;   machineTypeOverride,0
;   strokeXoverride,370
;   strokeYoverride,355
;   strokeZoverride,450
;   originOffsetXoverride,185
;   originOffsetYoverride,177.5
;   originOffsetZoverride,0
;   homeXdirOverride,-1
;   homeYdirOverride,-1
;   homeZdirOverride,-1
;   flipXoverride,1
;   flipYoverride,-1
;   flipZoverride,1
;   toolheadOffsets,0,0|0,0|0,0|0,0|0,0|0,0
;   overrideFirmwareConfiguration,1
;   firmwareTypeOverride,RepRap (Marlin/Repetier/Sprinter)
;   GPXconfigOverride,r2
;   baudRateOverride,115200
;   overridePrinterModels,0
;   printerModelsOverride
;   startingGcode,M104 T[current_extruder] S[first_layer_temperature] R[first_layer_temperature] ; heat hotend,,M190 S[first_layer_bed_temperature]                           ; heat bed (wait),M109 T[current_extruder] S[first_layer_temperature] R[first_layer_temperature] ; heat hotend (wait),,T[current_extruder] P0,,M98 P"initial.g"
;   layerChangeGcode,
;   retractionGcode,
;   toolChangeGcode,
;   endingGcode,M98 P"end.g"
;   exportFileFormat,gcode
;   celebration,0
;   celebrationSong,Funky Town
;   postProcessing,
;   defaultSpeed,3000
;   outlineUnderspeed,0.5
;   solidInfillUnderspeed,0.8
;   supportUnderspeed,0.8
;   rapidXYspeed,12000
;   rapidZspeed,1200
;   minBridgingArea,10
;   bridgingExtraInflation,2
;   bridgingExtrusionMultiplier,1
;   bridgingSpeedMultiplier,1.5
;   useFixedBridgingAngle,0
;   fixedBridgingAngle,0
;   applyBridgingToPerimeters,0
;   filamentDiameters,1.75|1.75|1.75|1.75|1.75|1.75
;   filamentPricesPerKg,46|46|46|46|46|46
;   filamentDensities,1.25|1.25|1.25|1.25|1.25|1.25
;   useMinPrintHeight,0
;   minPrintHeight,0
;   useMaxPrintHeight,0
;   maxPrintHeight,1.05
;   useDiaphragm,0
;   diaphragmLayerInterval,20
;   robustSlicing,1
;   mergeAllIntoSolid,0
;   onlyRetractWhenCrossingOutline,1
;   retractBetweenLayers,0
;   useRetractionMinTravel,0
;   retractionMinTravel,1
;   retractWhileWiping,0
;   onlyWipeOutlines,1
;   avoidCrossingOutline,0
;   maxMovementDetourFactor,10
;   toolChangeRetractionDistance,12
;   toolChangeExtraRestartDistance,-0.5
;   toolChangeRetractionSpeed,600
;   externalThinWallType,0
;   internalThinWallType,2
;   thinWallAllowedOverlapPercentage,10
;   singleExtrusionMinLength,1
;   singleExtrusionMinPrintingWidthPercentage,50
;   singleExtrusionMaxPrintingWidthPercentage,200
;   singleExtrusionEndpointExtension,0.2
;   horizontalSizeCompensation,0
G90
M83
M106 S0
M140 S60
M190 S60
M104 S230 T0
M104 S0 T1
M109 S230 T0
M104 T[current_extruder] S[first_layer_temperature] R[first_layer_temperature] ; heat hotend
M190 S[first_layer_bed_temperature]                           ; heat bed (wait)
M109 T[current_extruder] S[first_layer_temperature] R[first_layer_temperature] ; heat hotend (wait)
T[current_extruder] P0
M98 P"initial.g"
; process Process1
; layer 1, Z = 0.200
T0
G1 E-1.0000 F600
; feature skirt
; tool H0.200 W0.480
G1 Z0.200 F1200
G1 X16.200 Y-12.568 F12000
G1 E1.0000 F600
G1 X16.200 Y12.568 E1.0032 F1500
G1 X12.568 Y16.200 E0.2050
G1 X-12.568 Y16.200 E1.0032
G1 X-16.200 Y12.568 E0.2050
G1 X-16.200 Y-12.568 E1.0032
G1 X-12.568 Y-16.200 E0.2050
G1 X12.568 Y-16.200 E1.0032
G1 X16.200 Y-12.568 E0.2050
G1 E-1.0000 F600
G1 X15.720 Y-12.369 F12000
G1 E1.0000 F600
G1 X15.720 Y12.369 E0.9874 F1500
G1 X12.369 Y15.720 E0.1891
G1 X-12.369 Y15.720 E0.9874
G1 X-15.720 Y12.369 E0.1891
G1 X-15.720 Y-12.369 E0.9874
G1 X-12.369 Y-15.720 E0.1891
G1 X12.369 Y-15.720 E0.9874
G1 X15.720 Y-12.369 E0.1891
G1 E-1.0000 F600
G1 X15.240 Y-12.170 F12000
G1 E1.0000 F600
G1 X15.240 Y12.170 E0.9715 F1500
G1 X12.170 Y15.240 E0.1733
G1 X-12.170 Y15.240 E0.9715
G1 X-15.240 Y12.170 E0.1733
G1 X-15.240 Y-12.170 E0.9715
G1 X-12.170 Y-15.240 E0.1733
G1 X12.170 Y-15.240 E0.9715
G1 X15.240 Y-12.170 E0.1733
G1 E-1.0000 F600
; feature inner perimeter
G1 X8.800 Y8.800 F12000
G1 E1.0000 F600
G1 X-8.800 Y8.800 E0.7025 F1125
G1 X-8.800 Y-8.800 E0.7025
G1 X8.800 Y-8.800 E0.7025
G1 X8.800 Y8.800 E0.7025
G1 X9.280 Y9.280 F12000
G1 X-9.280 Y9.280 E0.7408 F1125
G1 X-9.280 Y-9.280 E0.7408
G1 X9.280 Y-9.280 E0.7408
G1 X9.280 Y9.280 E0.7408
; feature outer perimeter
G1 X9.760 Y9.760 F12000
G1 X-9.760 Y9.760 E0.7791 F750
G1 X-9.760 Y-9.760 E0.7791
G1 X9.760 Y-9.760 E0.7791
G1 X9.760 Y9.760 E0.7791
; feature solid layer
G1 X-8.411 Y8.560 F12000
G1 X-8.560 Y8.411 E0.0084 F1200
G1 X-8.560 Y7.732 E0.0271
G1 X-7.732 Y8.560 E0.0468
G1 X-7.053 Y8.560 E0.0271
G1 X-8.560 Y7.053 E0.0851
G1 X-8.560 Y6.374 E0.0271
G1 X-6.374 Y8.560 E0.1234
G1 X-5.695 Y8.560 E0.0271
G1 X-8.560 Y5.695 E0.1617
G1 X-8.560 Y5.016 E0.0271
G1 X-5.016 Y8.560 E0.2000
G1 X-4.338 Y8.560 E0.0271
G1 X-8.560 Y4.338 E0.2383
G1 X-8.560 Y3.659 E0.0271
G1 X-3.659 Y8.560 E0.2766
G1 X-2.980 Y8.560 E0.0271
G1 X-8.560 Y2.980 E0.3150
G1 X-8.560 Y2.301 E0.0271
G1 X-2.301 Y8.560 E0.3533
G1 X-1.622 Y8.560 E0.0271
G1 X-8.560 Y1.622 E0.3916
G1 X-8.560 Y0.944 E0.0271
G1 X-0.944 Y8.560 E0.4299
G1 X-0.265 Y8.560 E0.0271
G1 X-8.560 Y0.265 E0.4682
G1 X-8.560 Y-0.414 E0.0271
G1 X0.414 Y8.560 E0.5065
G1 X1.093 Y8.560 E0.0271
G1 X-8.560 Y-1.093 E0.5449
G1 X-8.560 Y-1.772 E0.0271
G1 X1.772 Y8.560 E0.5832
G1 X2.451 Y8.560 E0.0271
G1 X-8.560 Y-2.451 E0.6215
G1 X-8.560 Y-3.129 E0.0271
G1 X3.129 Y8.560 E0.6598
G1 X3.808 Y8.560 E0.0271
G1 X-8.560 Y-3.808 E0.6981
G1 X-8.560 Y-4.487 E0.0271
G1 X4.487 Y8.560 E0.7364
G1 X5.166 Y8.560 E0.0271
G1 X-8.560 Y-5.166 E0.7747
G1 X-8.560 Y-5.845 E0.0271
G1 X5.845 Y8.560 E0.8131
G1 X6.524 Y8.560 E0.0271
G1 X-8.560 Y-6.524 E0.8514
G1 X-8.560 Y-7.202 E0.0271
G1 X7.202 Y8.560 E0.8897
G1 X7.881 Y8.560 E0.0271
G1 X-8.560 Y-7.881 E0.9280
G1 X-8.560 Y-8.560 E0.0271
G1 X8.560 Y8.560 E0.9663
G1 X8.560 Y7.881 E0.0271
G1 X-7.881 Y-8.560 E0.9280
G1 X-7.202 Y-8.560 E0.0271
G1 X8.560 Y7.202 E0.8897
G1 X8.560 Y6.524 E0.0271
G1 X-6.524 Y-8.560 E0.8514
G1 X-5.845 Y-8.560 E0.0271
G1 X8.560 Y5.845 E0.8131
G1 X8.560 Y5.166 E0.0271
G1 X-5.166 Y-8.560 E0.7747
G1 X-4.487 Y-8.560 E0.0271
G1 X8.560 Y4.487 E0.7364
G1 X8.560 Y3.808 E0.0271
G1 X-3.808 Y-8.560 E0.6981
G1 X-3.129 Y-8.560 E0.0271
G1 X8.560 Y3.129 E0.6598
G1 X8.560 Y2.451 E0.0271
G1 X-2.451 Y-8.560 E0.6215
G1 X-1.772 Y-8.560 E0.0271
G1 X8.560 Y1.772 E0.5832
G1 X8.560 Y1.093 E0.0271
G1 X-1.093 Y-8.560 E0.5449
G1 X-0.414 Y-8.560 E0.0271
G1 X8.560 Y0.414 E0.5065
G1 X8.560 Y-0.265 E0.0271
G1 X0.265 Y-8.560 E0.4682
G1 X0.944 Y-8.560 E0.0271
G1 X8.560 Y-0.944 E0.4299
G1 X8.560 Y-1.622 E0.0271
G1 X1.622 Y-8.560 E0.3916
G1 X2.301 Y-8.560 E0.0271
G1 X8.560 Y-2.301 E0.3533
G1 X8.560 Y-2.980 E0.0271
G1 X2.980 Y-8.560 E0.3150
G1 X3.659 Y-8.560 E0.0271
G1 X8.560 Y-3.659 E0.2766
G1 X8.560 Y-4.338 E0.0271
G1 X4.338 Y-8.560 E0.2383
G1 X5.016 Y-8.560 E0.0271
G1 X8.560 Y-5.016 E0.2000
G1 X8.560 Y-5.695 E0.0271
G1 X5.695 Y-8.560 E0.1617
G1 X6.374 Y-8.560 E0.0271
G1 X8.560 Y-6.374 E0.1234
G1 X8.560 Y-7.053 E0.0271
G1 X7.053 Y-8.560 E0.0851
G1 X7.732 Y-8.560 E0.0271
G1 X8.560 Y-7.732 E0.0467
G1 X8.560 Y-8.411 E0.0271
G1 X8.411 Y-8.560 E0.0084
; layer 2, Z = 0.400
M106 S128
; feature inner perimeter
G1 Z0.400 F1200
G1 X8.800 Y8.800 F12000
G1 X-8.800 Y8.800 E0.7025 F2250
G1 X-8.800 Y-8.800 E0.7025
G1 X8.800 Y-8.800 E0.7025
G1 X8.800 Y8.800 E0.7025
G1 X9.280 Y9.280 F12000
G1 X-9.280 Y9.280 E0.7408 F2250
G1 X-9.280 Y-9.280 E0.7408
G1 X9.280 Y-9.280 E0.7408
G1 X9.280 Y9.280 E0.7408
; feature outer perimeter
G1 X9.760 Y9.760 F12000
G1 X-9.760 Y9.760 E0.7791 F1500
G1 X-9.760 Y-9.760 E0.7791
G1 X9.760 Y-9.760 E0.7791
G1 X9.760 Y9.760 E0.7791
; feature solid layer
G1 X8.560 Y8.411 F12000
G1 X8.411 Y8.560 E0.0084 F2400
G1 X7.732 Y8.560 E0.0271
G1 X8.560 Y7.732 E0.0467
G1 X8.560 Y7.053 E0.0271
G1 X7.053 Y8.560 E0.0851
G1 X6.374 Y8.560 E0.0271
G1 X8.560 Y6.374 E0.1234
G1 X8.560 Y5.695 E0.0271
G1 X5.695 Y8.560 E0.1617
G1 X5.016 Y8.560 E0.0271
G1 X8.560 Y5.016 E0.2000
G1 X8.560 Y4.338 E0.0271
G1 X4.338 Y8.560 E0.2383
G1 X3.659 Y8.560 E0.0271
G1 X8.560 Y3.659 E0.2766
G1 X8.560 Y2.980 E0.0271
G1 X2.980 Y8.560 E0.3150
G1 X2.301 Y8.560 E0.0271
G1 X8.560 Y2.301 E0.3533
G1 X8.560 Y1.622 E0.0271
G1 X1.622 Y8.560 E0.3916
G1 X0.944 Y8.560 E0.0271
G1 X8.560 Y0.944 E0.4299
G1 X8.560 Y0.265 E0.0271
G1 X0.265 Y8.560 E0.4682
G1 X-0.414 Y8.560 E0.0271
G1 X8.560 Y-0.414 E0.5065
G1 X8.560 Y-1.093 E0.0271
G1 X-1.093 Y8.560 E0.5449
G1 X-1.772 Y8.560 E0.0271
G1 X8.560 Y-1.772 E0.5832
G1 X8.560 Y-2.451 E0.0271
G1 X-2.451 Y8.560 E0.6215
G1 X-3.129 Y8.560 E0.0271
G1 X8.560 Y-3.129 E0.6598
G1 X8.560 Y-3.808 E0.0271
G1 X-3.808 Y8.560 E0.6981
G1 X-4.487 Y8.560 E0.0271
G1 X8.560 Y-4.487 E0.7364
G1 X8.560 Y-5.166 E0.0271
G1 X-5.166 Y8.560 E0.7747
G1 X-5.845 Y8.560 E0.0271
G1 X8.560 Y-5.845 E0.8131
G1 X8.560 Y-6.523 E0.0271
G1 X-6.523 Y8.560 E0.8514
G1 X-7.202 Y8.560 E0.0271
G1 X8.560 Y-7.202 E0.8897
G1 X8.560 Y-7.881 E0.0271
G1 X-7.881 Y8.560 E0.9280
G1 X-8.560 Y8.560 E0.0271
G1 X8.560 Y-8.560 E0.9663
G1 X7.881 Y-8.560 E0.0271
G1 X-8.560 Y7.881 E0.9280
G1 X-8.560 Y7.202 E0.0271
G1 X7.202 Y-8.560 E0.8897
G1 X6.524 Y-8.560 E0.0271
G1 X-8.560 Y6.524 E0.8514
G1 X-8.560 Y5.845 E0.0271
G1 X5.845 Y-8.560 E0.8131
G1 X5.166 Y-8.560 E0.0271
G1 X-8.560 Y5.166 E0.7748
G1 X-8.560 Y4.487 E0.0271
G1 X4.487 Y-8.560 E0.7364
G1 X3.808 Y-8.560 E0.0271
G1 X-8.560 Y3.808 E0.6981
G1 X-8.560 Y3.129 E0.0271
G1 X3.129 Y-8.560 E0.6598
G1 X2.451 Y-8.560 E0.0271
G1 X-8.560 Y2.451 E0.6215
G1 X-8.560 Y1.772 E0.0271
G1 X1.772 Y-8.560 E0.5832
G1 X1.093 Y-8.560 E0.0271
G1 X-8.560 Y1.093 E0.5449
G1 X-8.560 Y0.414 E0.0271
G1 X0.414 Y-8.560 E0.5065
G1 X-0.265 Y-8.560 E0.0271
G1 X-8.560 Y-0.265 E0.4682
G1 X-8.560 Y-0.943 E0.0271
G1 X-0.943 Y-8.560 E0.4299
G1 X-1.622 Y-8.560 E0.0271
G1 X-8.560 Y-1.622 E0.3916
G1 X-8.560 Y-2.301 E0.0271
G1 X-2.301 Y-8.560 E0.3533
G1 X-2.980 Y-8.560 E0.0271
G1 X-8.560 Y-2.980 E0.3150
G1 X-8.560 Y-3.659 E0.0271
G1 X-3.659 Y-8.560 E0.2766
G1 X-4.338 Y-8.560 E0.0271
G1 X-8.560 Y-4.338 E0.2383
G1 X-8.560 Y-5.016 E0.0271
G1 X-5.016 Y-8.560 E0.2000
G1 X-5.695 Y-8.560 E0.0271
G1 X-8.560 Y-5.695 E0.1617
G1 X-8.560 Y-6.374 E0.0271
G1 X-6.374 Y-8.560 E0.1234
G1 X-7.053 Y-8.560 E0.0271
G1 X-8.560 Y-7.053 E0.0851
G1 X-8.560 Y-7.732 E0.0271
G1 X-7.732 Y-8.560 E0.0468
G1 X-8.411 Y-8.560 E0.0271
G1 X-8.560 Y-8.411 E0.0084
; layer 3, Z = 0.600
; feature inner perimeter
G1 Z0.600 F1200
G1 X8.800 Y8.800 F12000
G1 X-8.800 Y8.800 E0.7025 F2250
G1 X-8.800 Y-8.800 E0.7025
G1 X8.800 Y-8.800 E0.7025
G1 X8.800 Y8.800 E0.7025
G1 X9.280 Y9.280 F12000
G1 X-9.280 Y9.280 E0.7408 F2250
G1 X-9.280 Y-9.280 E0.7408
G1 X9.280 Y-9.280 E0.7408
G1 X9.280 Y9.280 E0.7408
; feature outer perimeter
G1 X9.760 Y9.760 F12000
G1 X-9.760 Y9.760 E0.7791 F1500
G1 X-9.760 Y-9.760 E0.7791
G1 X9.760 Y-9.760 E0.7791
G1 X9.760 Y9.760 E0.7791
; feature solid layer
G1 X-8.411 Y8.560 F12000
G1 X-8.560 Y8.411 E0.0084 F2400
G1 X-8.560 Y7.732 E0.0271
G1 X-7.732 Y8.560 E0.0468
G1 X-7.053 Y8.560 E0.0271
G1 X-8.560 Y7.053 E0.0851
G1 X-8.560 Y6.374 E0.0271
G1 X-6.374 Y8.560 E0.1234
G1 X-5.695 Y8.560 E0.0271
G1 X-8.560 Y5.695 E0.1617
G1 X-8.560 Y5.016 E0.0271
G1 X-5.016 Y8.560 E0.2000
G1 X-4.338 Y8.560 E0.0271
G1 X-8.560 Y4.338 E0.2383
G1 X-8.560 Y3.659 E0.0271
G1 X-3.659 Y8.560 E0.2766
G1 X-2.980 Y8.560 E0.0271
G1 X-8.560 Y2.980 E0.3150
G1 X-8.560 Y2.301 E0.0271
G1 X-2.301 Y8.560 E0.3533
G1 X-1.622 Y8.560 E0.0271
G1 X-8.560 Y1.622 E0.3916
G1 X-8.560 Y0.944 E0.0271
G1 X-0.944 Y8.560 E0.4299
G1 X-0.265 Y8.560 E0.0271
G1 X-8.560 Y0.265 E0.4682
G1 X-8.560 Y-0.414 E0.0271
G1 X0.414 Y8.560 E0.5065
G1 X1.093 Y8.560 E0.0271
G1 X-8.560 Y-1.093 E0.5449
G1 X-8.560 Y-1.772 E0.0271
G1 X1.772 Y8.560 E0.5832
G1 X2.451 Y8.560 E0.0271
G1 X-8.560 Y-2.451 E0.6215
G1 X-8.560 Y-3.129 E0.0271
G1 X3.129 Y8.560 E0.6598
G1 X3.808 Y8.560 E0.0271
G1 X-8.560 Y-3.808 E0.6981
G1 X-8.560 Y-4.487 E0.0271
G1 X4.487 Y8.560 E0.7364
G1 X5.166 Y8.560 E0.0271
G1 X-8.560 Y-5.166 E0.7747
G1 X-8.560 Y-5.845 E0.0271
G1 X5.845 Y8.560 E0.8131
G1 X6.524 Y8.560 E0.0271
G1 X-8.560 Y-6.524 E0.8514
G1 X-8.560 Y-7.202 E0.0271
G1 X7.202 Y8.560 E0.8897
G1 X7.881 Y8.560 E0.0271
G1 X-8.560 Y-7.881 E0.9280
G1 X-8.560 Y-8.560 E0.0271
G1 X8.560 Y8.560 E0.9663
G1 X8.560 Y7.881 E0.0271
G1 X-7.881 Y-8.560 E0.9280
G1 X-7.202 Y-8.560 E0.0271
G1 X8.560 Y7.202 E0.8897
G1 X8.560 Y6.524 E0.0271
G1 X-6.524 Y-8.560 E0.8514
G1 X-5.845 Y-8.560 E0.0271
G1 X8.560 Y5.845 E0.8131
G1 X8.560 Y5.166 E0.0271
G1 X-5.166 Y-8.560 E0.7747
G1 X-4.487 Y-8.560 E0.0271
G1 X8.560 Y4.487 E0.7364
G1 X8.560 Y3.808 E0.0271
G1 X-3.808 Y-8.560 E0.6981
G1 X-3.129 Y-8.560 E0.0271
G1 X8.560 Y3.129 E0.6598
G1 X8.560 Y2.451 E0.0271
G1 X-2.451 Y-8.560 E0.6215
G1 X-1.772 Y-8.560 E0.0271
G1 X8.560 Y1.772 E0.5832
G1 X8.560 Y1.093 E0.0271
G1 X-1.093 Y-8.560 E0.5449
G1 X-0.414 Y-8.560 E0.0271
G1 X8.560 Y0.414 E0.5065
G1 X8.560 Y-0.265 E0.0271
G1 X0.265 Y-8.560 E0.4682
G1 X0.944 Y-8.560 E0.0271
G1 X8.560 Y-0.944 E0.4299
