; G-Code generated by Simplify3D(R) Version 4.1.2
; Apr 21, 2023 at 10:46:26 AM
; Settings Summary
;   processName,Process1
;   applyToModels,logo_top
;   profileName,22IDEX (modified)
;   profileVersion,2023-03-10 13:48:47
;   baseProfile,Default (modified)
;   printMaterial,PLA
;   printQuality,Medium
;   printExtruders,
;   extruderName,Right,Left
;   extruderToolheadNumber,1,0
;   extruderDiameter,0.4,0.4
;   extruderAutoWidth,0,1
;   extruderWidth,0.4,0.48
;   extrusionMultiplier,0.97,1
;   extruderUseRetract,1,1
;   extruderRetractionDistance,2,1
;   extruderExtraRestartDistance,0,0
;   extruderRetractionZLift,0,0
;   extruderRetractionSpeed,1500,600
;   extruderUseCoasting,0,0
;   extruderCoastingDistance,0.2,0.2
;   extruderUseWipe,0,0
;   extruderWipeDistance,0.2,2
;   primaryExtruder,1
;   layerHeight,0.25
;   topSolidLayers,0
;   bottomSolidLayers,3
;   perimeterOutlines,3
;   printPerimetersInsideOut,1
;   startPointOption,3
;   startPointOriginX,0
;   startPointOriginY,0
;   sequentialIslands,0
;   spiralVaseMode,0
;   firstLayerHeightPercentage,100
;   firstLayerWidthPercentage,100
;   firstLayerUnderspeed,0.5
;   useRaft,0
;   raftExtruder,1
;   raftTopLayers,3
;   raftBaseLayers,2
;   raftOffset,3
;   raftSeparationDistance,0.17
;   raftTopInfill,100
;   aboveRaftSpeedMultiplier,0.3
;   useSkirt,1
;   skirtExtruder,1
;   skirtLayers,1
;   skirtOutlines,2
;   skirtOffset,3
;   usePrimePillar,0
;   primePillarExtruder,999
;   primePillarWidth,12
;   primePillarLocation,7
;   primePillarSpeedMultiplier,1
;   useOozeShield,0
;   oozeShieldExtruder,999
;   oozeShieldOffset,2
;   oozeShieldOutlines,1
;   oozeShieldSidewallShape,1
;   oozeShieldSidewallAngle,30
;   oozeShieldSpeedMultiplier,1
;   infillExtruder,1
;   internalInfillPattern,Fast Honeycomb
;   externalInfillPattern,Rectilinear
;   infillPercentage,10
;   outlineOverlapPercentage,50
;   infillExtrusionWidthPercentage,100
;   minInfillLength,5
;   infillLayerInterval,1
;   internalInfillAngles,0
;   overlapInternalInfillAngles,0
;   externalInfillAngles,45,-45
;   generateSupport,0
;   supportExtruder,1
;   supportInfillPercentage,20
;   supportExtraInflation,0
;   supportBaseLayers,0
;   denseSupportExtruder,1
;   denseSupportLayers,3
;   denseSupportInfillPercentage,50
;   supportLayerInterval,1
;   supportHorizontalPartOffset,0.7
;   supportUpperSeparationLayers,1
;   supportLowerSeparationLayers,1
;   supportType,0
;   supportGridSpacing,1
;   maxOverhangAngle,45
;   supportAngles,45
;   temperatureName,Right,Left,Bed
;   temperatureNumber,1,0,2
;   temperatureSetpointCount,1,1,1
;   temperatureSetpointLayers,1,1,1
;   temperatureSetpointTemperatures,0,230,60
;   temperatureStabilizeAtStartup,1,1,1
;   temperatureHeatedBed,0,0,1
;   fanLayers,1,2
;   fanSpeeds,0,50
;   blipFanToFullPower,0
;   adjustSpeedForCooling,0
;   minSpeedLayerTime,15
;   minCoolingSpeedSlowdown,20
;   increaseFanForCooling,0
;   minFanLayerTime,45
;   maxCoolingFanSpeed,100
;   increaseFanForBridging,0
;   bridgingFanSpeed,100
;   use5D,1
;   relativeEdistances,1
;   allowEaxisZeroing,1
;   independentExtruderAxes,0
;   includeM10123,0
;   stickySupport,1
;   applyToolheadOffsets,0
;   gcodeXoffset,0
;   gcodeYoffset,0
;   gcodeZoffset,0
;   overrideMachineDefinition,1
;   machineTypeOverride,0
;   strokeXoverride,370
;   strokeYoverride,355
;   strokeZoverride,450
;   originOffsetXoverride,185
;   originOffsetYoverride,177.5
;   originOffsetZoverride,0
;   homeXdirOverride,-1
;   homeYdirOverride,-1
;   homeZdirOverride,-1
;   flipXoverride,1
;   flipYoverride,-1
;   flipZoverride,1
;   toolheadOffsets,0,0|0,0|0,0|0,0|0,0|0,0
;   overrideFirmwareConfiguration,1
;   firmwareTypeOverride,RepRap (Marlin/Repetier/Sprinter)
;   GPXconfigOverride,r2
;   baudRateOverride,115200
;   overridePrinterModels,0
;   printerModelsOverride
;   startingGcode,M104 T[current_extruder] S[first_layer_temperature] R[first_layer_temperature] ; heat hotend,,M190 S[first_layer_bed_temperature]                           ; heat bed (wait),M109 T[current_extruder] S[first_layer_temperature] R[first_layer_temperature] ; heat hotend (wait),,T[current_extruder] P0,,M98 P"initial.g"
;   layerChangeGcode,
;   retractionGcode,
;   toolChangeGcode,
;   endingGcode,M98 P"end.g"
;   exportFileFormat,gcode
;   celebration,0
;   celebrationSong,Funky Town
;   postProcessing,
;   defaultSpeed,4200
;   outlineUnderspeed,0.5
;   solidInfillUnderspeed,0.8
;   supportUnderspeed,0.8
;   rapidXYspeed,12000
;   rapidZspeed,1200
;   minBridgingArea,10
;   bridgingExtraInflation,2
;   bridgingExtrusionMultiplier,1
;   bridgingSpeedMultiplier,1.5
;   useFixedBridgingAngle,0
;   fixedBridgingAngle,0
;   applyBridgingToPerimeters,0
;   filamentDiameters,1.75|1.75|1.75|1.75|1.75|1.75
;   filamentPricesPerKg,46|46|46|46|46|46
;   filamentDensities,1.25|1.25|1.25|1.25|1.25|1.25
;   useMinPrintHeight,0
;   minPrintHeight,0
;   useMaxPrintHeight,0
;   maxPrintHeight,1.05
;   useDiaphragm,0
;   diaphragmLayerInterval,20
;   robustSlicing,1
;   mergeAllIntoSolid,0
;   onlyRetractWhenCrossingOutline,1
;   retractBetweenLayers,0
;   useRetractionMinTravel,0
;   retractionMinTravel,1
;   retractWhileWiping,0
;   onlyWipeOutlines,1
;   avoidCrossingOutline,0
;   maxMovementDetourFactor,10
;   toolChangeRetractionDistance,12
;   toolChangeExtraRestartDistance,-0.5
;   toolChangeRetractionSpeed,600
;   externalThinWallType,0
;   internalThinWallType,2
;   thinWallAllowedOverlapPercentage,10
;   singleExtrusionMinLength,1
;   singleExtrusionMinPrintingWidthPercentage,50
;   singleExtrusionMaxPrintingWidthPercentage,200
;   singleExtrusionEndpointExtension,0.2
;   horizontalSizeCompensation,0
G90
M83
M106 S0
M140 S60
M190 S60
M104 S230 T0
M104 S0 T1
M109 S230 T0
M104 T[current_extruder] S[first_layer_temperature] R[first_layer_temperature] ; heat hotend
M190 S[first_layer_bed_temperature]                           ; heat bed (wait)
M109 T[current_extruder] S[first_layer_temperature] R[first_layer_temperature] ; heat hotend (wait)
T[current_extruder] P0
M98 P"initial.g"
; process Process1
; layer 1, Z = 0.250
T0
G1 E-1.0000 F600
; feature skirt
; tool H0.250 W0.480
G1 Z0.250 F1200
G1 X0.809 Y-58.925 F12000
G1 E1.0000 F600
G1 X114.788 Y54.316 E8.0159 F2100
G1 X112.890 Y58.920 E0.2485
G1 X-112.881 Y58.920 E11.2638
G1 X-114.788 Y54.338 E0.2476
G1 X-2.273 Y-58.915 E7.9646
G1 X0.809 Y-58.925 E0.1538
G1 E-1.0000 F600
G1 X0.612 Y-58.444 F12000
G1 E1.0000 F600
G1 X114.222 Y54.430 E7.9899 F2100
G1 X112.569 Y58.440 E0.2164
G1 X-112.561 Y58.440 E11.2318
G1 X-114.222 Y54.450 E0.2156
G1 X-2.073 Y-58.436 E7.9387
G1 X0.612 Y-58.444 E0.1339
G1 E-1.0000 F600
; feature inner perimeter
G1 X-0.714 Y-53.503 F12000
G1 E1.0000 F600
G1 X107.490 Y54.000 E7.6097 F1575
G1 X-107.516 Y54.000 E10.7267
G1 X-0.714 Y-53.503 E7.5602
G1 X-0.717 Y-54.182 F12000
G1 X108.654 Y54.480 E7.6917 F1575
G1 X-108.670 Y54.480 E10.8423
G1 X-0.717 Y-54.182 E7.6417
; feature outer perimeter
G1 X-0.719 Y-54.861 F12000
G1 X109.818 Y54.960 E7.7737 F1050
G1 X-109.823 Y54.960 E10.9579
G1 X-0.719 Y-54.861 E7.7232
; feature solid layer
G1 X76.147 Y23.199 F12000
G1 X106.708 Y53.760 E2.1563 F1680
G1 X106.029 Y53.760 E0.0339
G1 X-0.803 Y-53.073 E7.5376
G1 X-1.142 Y-52.732 E0.0239
G1 X105.351 Y53.760 E7.5136
G1 X104.672 Y53.760 E0.0339
G1 X-1.480 Y-52.392 E7.4896
G1 X-1.818 Y-52.051 E0.0239
G1 X103.993 Y53.760 E7.4656
G1 X103.314 Y53.760 E0.0339
G1 X-2.157 Y-51.711 E7.4415
G1 X-2.495 Y-51.370 E0.0239
G1 X102.635 Y53.760 E7.4175
G1 X101.956 Y53.760 E0.0339
G1 X-2.833 Y-51.030 E7.3935
G1 X-3.172 Y-50.689 E0.0239
G1 X101.278 Y53.760 E7.3695
G1 X100.599 Y53.760 E0.0339
G1 X-3.510 Y-50.349 E7.3454
G1 X-3.848 Y-50.008 E0.0239
G1 X99.920 Y53.760 E7.3214
G1 X99.241 Y53.760 E0.0339
G1 X-4.186 Y-49.668 E7.2974
G1 X-4.525 Y-49.327 E0.0239
G1 X98.562 Y53.760 E7.2734
G1 X97.883 Y53.760 E0.0339
G1 X-4.863 Y-48.987 E7.2493
G1 X-5.201 Y-48.646 E0.0239
G1 X97.205 Y53.760 E7.2253
G1 X96.526 Y53.760 E0.0339
G1 X-5.540 Y-48.306 E7.2013
G1 X-5.878 Y-47.965 E0.0239
G1 X95.847 Y53.760 E7.1772
G1 X95.168 Y53.760 E0.0339
G1 X-6.216 Y-47.624 E7.1532
G1 X-6.555 Y-47.284 E0.0239
G1 X94.489 Y53.760 E7.1292
G1 X93.811 Y53.760 E0.0339
G1 X-6.893 Y-46.943 E7.1052
G1 X-7.231 Y-46.603 E0.0239
G1 X93.132 Y53.760 E7.0811
G1 X92.453 Y53.760 E0.0339
G1 X-7.569 Y-46.262 E7.0571
G1 X-7.908 Y-45.922 E0.0239
G1 X91.774 Y53.760 E7.0331
G1 X91.095 Y53.760 E0.0339
G1 X-8.246 Y-45.581 E7.0091
G1 X-8.584 Y-45.241 E0.0239
G1 X90.416 Y53.760 E6.9850
G1 X89.738 Y53.760 E0.0339
G1 X-8.923 Y-44.900 E6.9610
G1 X-9.261 Y-44.560 E0.0239
G1 X89.059 Y53.760 E6.9370
G1 X88.380 Y53.760 E0.0339
G1 X-9.599 Y-44.219 E6.9130
G1 X-9.938 Y-43.879 E0.0239
G1 X87.701 Y53.760 E6.8889
G1 X87.022 Y53.760 E0.0339
G1 X-10.276 Y-43.538 E6.8649
G1 X-10.614 Y-43.198 E0.0239
G1 X86.343 Y53.760 E6.8409
G1 X85.665 Y53.760 E0.0339
G1 X-10.952 Y-42.857 E6.8169
G1 X-11.291 Y-42.517 E0.0239
G1 X84.986 Y53.760 E6.7928
G1 X84.307 Y53.760 E0.0339
G1 X-11.629 Y-42.176 E6.7688
G1 X-11.967 Y-41.836 E0.0239
G1 X83.628 Y53.760 E6.7448
G1 X82.949 Y53.760 E0.0339
G1 X-12.306 Y-41.495 E6.7208
G1 X-12.644 Y-41.155 E0.0239
G1 X82.271 Y53.760 E6.6967
G1 X81.592 Y53.760 E0.0339
G1 X-12.982 Y-40.814 E6.6727
G1 X-13.321 Y-40.474 E0.0239
G1 X80.913 Y53.760 E6.6487
G1 X80.234 Y53.760 E0.0339
G1 X-13.659 Y-40.133 E6.6247
G1 X-13.997 Y-39.792 E0.0239
G1 X79.555 Y53.760 E6.6006
G1 X78.876 Y53.760 E0.0339
G1 X-14.336 Y-39.452 E6.5766
G1 X-14.674 Y-39.111 E0.0239
G1 X78.198 Y53.760 E6.5526
G1 X77.519 Y53.760 E0.0339
G1 X-15.012 Y-38.771 E6.5286
G1 X-15.350 Y-38.430 E0.0239
G1 X76.840 Y53.760 E6.5045
G1 X76.161 Y53.760 E0.0339
G1 X-15.689 Y-38.090 E6.4805
G1 X-16.027 Y-37.749 E0.0239
G1 X75.482 Y53.760 E6.4565
G1 X74.804 Y53.760 E0.0339
G1 X-16.365 Y-37.409 E6.4325
G1 X-16.704 Y-37.068 E0.0239
G1 X74.125 Y53.760 E6.4084
G1 X73.446 Y53.760 E0.0339
G1 X-17.042 Y-36.728 E6.3844
G1 X-17.380 Y-36.387 E0.0239
G1 X72.767 Y53.760 E6.3604
G1 X72.088 Y53.760 E0.0339
G1 X-17.719 Y-36.047 E6.3364
G1 X-18.057 Y-35.706 E0.0239
G1 X71.409 Y53.760 E6.3123
G1 X70.731 Y53.760 E0.0339
G1 X-18.395 Y-35.366 E6.2883
G1 X-18.733 Y-35.025 E0.0239
G1 X70.052 Y53.760 E6.2643
G1 X69.373 Y53.760 E0.0339
G1 X-19.072 Y-34.685 E6.2402
G1 X-19.410 Y-34.344 E0.0239
G1 X68.694 Y53.760 E6.2162
G1 X68.015 Y53.760 E0.0339
G1 X-19.748 Y-34.004 E6.1922
G1 X-20.087 Y-33.663 E0.0239
G1 X67.336 Y53.760 E6.1682
G1 X66.658 Y53.760 E0.0339
G1 X-20.425 Y-33.323 E6.1441
G1 X-20.763 Y-32.982 E0.0239
G1 X65.979 Y53.760 E6.1201
G1 X65.300 Y53.760 E0.0339
G1 X-21.102 Y-32.642 E6.0961
G1 X-21.440 Y-32.301 E0.0239
G1 X64.621 Y53.760 E6.0721
G1 X63.942 Y53.760 E0.0339
G1 X-21.778 Y-31.960 E6.0480
G1 X-22.116 Y-31.620 E0.0239
G1 X63.264 Y53.760 E6.0240
G1 X62.585 Y53.760 E0.0339
G1 X-22.455 Y-31.279 E6.0000
G1 X-22.793 Y-30.939 E0.0239
G1 X61.906 Y53.760 E5.9760
G1 X61.227 Y53.760 E0.0339
G1 X-23.131 Y-30.598 E5.9519
G1 X-23.470 Y-30.258 E0.0239
G1 X60.548 Y53.760 E5.9279
G1 X59.869 Y53.760 E0.0339
G1 X-23.808 Y-29.917 E5.9039
G1 X-24.146 Y-29.577 E0.0239
G1 X59.191 Y53.760 E5.8799
G1 X58.512 Y53.760 E0.0339
G1 X-24.485 Y-29.236 E5.8558
G1 X-24.823 Y-28.896 E0.0239
G1 X57.833 Y53.760 E5.8318
G1 X57.154 Y53.760 E0.0339
G1 X-25.161 Y-28.555 E5.8078
G1 X-25.499 Y-28.215 E0.0239
G1 X56.475 Y53.760 E5.7838
G1 X55.796 Y53.760 E0.0339
G1 X-25.838 Y-27.874 E5.7597
G1 X-26.176 Y-27.534 E0.0239
G1 X55.118 Y53.760 E5.7357
G1 X54.439 Y53.760 E0.0339
G1 X-26.514 Y-27.193 E5.7117
G1 X-26.853 Y-26.853 E0.0239
G1 X53.760 Y53.760 E5.6877
G1 X53.081 Y53.760 E0.0339
G1 X-27.191 Y-26.512 E5.6636
G1 X-27.529 Y-26.172 E0.0239
G1 X52.402 Y53.760 E5.6396
G1 X51.724 Y53.760 E0.0339
G1 X-27.868 Y-25.831 E5.6156
G1 X-28.206 Y-25.491 E0.0239
G1 X51.045 Y53.760 E5.5916
G1 X50.366 Y53.760 E0.0339
G1 X-28.544 Y-25.150 E5.5675
G1 X-28.882 Y-24.810 E0.0239
G1 X49.687 Y53.760 E5.5435
G1 X49.008 Y53.760 E0.0339
G1 X-29.221 Y-24.469 E5.5195
G1 X-29.559 Y-24.128 E0.0239
G1 X48.329 Y53.760 E5.4955
G1 X47.651 Y53.760 E0.0339
G1 X-29.897 Y-23.788 E5.4714
G1 X-30.236 Y-23.447 E0.0239
G1 X46.972 Y53.760 E5.4474
G1 X46.293 Y53.760 E0.0339
G1 X-30.574 Y-23.107 E5.4234
G1 X-30.912 Y-22.766 E0.0239
G1 X45.614 Y53.760 E5.3994
G1 X44.935 Y53.760 E0.0339
G1 X-31.251 Y-22.426 E5.3753
G1 X-31.589 Y-22.085 E0.0239
G1 X44.256 Y53.760 E5.3513
G1 X43.578 Y53.760 E0.0339
G1 X-31.927 Y-21.745 E5.3273
G1 X-32.265 Y-21.404 E0.0239
G1 X42.899 Y53.760 E5.3032
G1 X42.220 Y53.760 E0.0339
G1 X-32.604 Y-21.064 E5.2792
G1 X-32.942 Y-20.723 E0.0239
G1 X41.541 Y53.760 E5.2552
G1 X40.862 Y53.760 E0.0339
G1 X-33.280 Y-20.383 E5.2312
G1 X-33.619 Y-20.042 E0.0239
G1 X40.184 Y53.760 E5.2071
G1 X39.505 Y53.760 E0.0339
G1 X-33.957 Y-19.702 E5.1831
G1 X-34.295 Y-19.361 E0.0239
G1 X38.826 Y53.760 E5.1591
G1 X38.147 Y53.760 E0.0339
G1 X-34.634 Y-19.021 E5.1351
G1 X-34.972 Y-18.680 E0.0239
G1 X37.468 Y53.760 E5.1110
G1 X36.789 Y53.760 E0.0339
G1 X-35.310 Y-18.340 E5.0870
G1 X-35.648 Y-17.999 E0.0239
G1 X36.111 Y53.760 E5.0630
G1 X35.432 Y53.760 E0.0339
G1 X-35.987 Y-17.659 E5.0390
G1 X-36.325 Y-17.318 E0.0239
G1 X34.753 Y53.760 E5.0149
G1 X34.074 Y53.760 E0.0339
G1 X-36.663 Y-16.978 E4.9909
G1 X-37.002 Y-16.637 E0.0239
G1 X33.395 Y53.760 E4.9669
G1 X32.717 Y53.760 E0.0339
G1 X-37.340 Y-16.296 E4.9429
G1 X-37.678 Y-15.956 E0.0239
G1 X32.038 Y53.760 E4.9188
G1 X31.359 Y53.760 E0.0339
G1 X-38.017 Y-15.615 E4.8948
G1 X-38.355 Y-15.275 E0.0239
G1 X30.680 Y53.760 E4.8708
G1 X30.001 Y53.760 E0.0339
G1 X-38.693 Y-14.934 E4.8468
G1 X-39.031 Y-14.594 E0.0239
G1 X29.322 Y53.760 E4.8227
G1 X28.644 Y53.760 E0.0339
G1 X-39.370 Y-14.253 E4.7987
G1 X-39.708 Y-13.913 E0.0239
G1 X27.965 Y53.760 E4.7747
G1 X27.286 Y53.760 E0.0339
G1 X-40.046 Y-13.572 E4.7507
G1 X-40.385 Y-13.232 E0.0239
G1 X26.607 Y53.760 E4.7266
G1 X25.928 Y53.760 E0.0339
G1 X-40.723 Y-12.891 E4.7026
G1 X-41.061 Y-12.551 E0.0239
G1 X25.249 Y53.760 E4.6786
G1 X24.571 Y53.760 E0.0339
G1 X-41.400 Y-12.210 E4.6546
G1 X-41.738 Y-11.870 E0.0239
G1 X23.892 Y53.760 E4.6305
G1 X23.213 Y53.760 E0.0339
G1 X-42.076 Y-11.529 E4.6065
G1 X-42.414 Y-11.189 E0.0239
G1 X22.534 Y53.760 E4.5825
G1 X21.855 Y53.760 E0.0339
G1 X-42.753 Y-10.848 E4.5585
G1 X-43.091 Y-10.508 E0.0239
G1 X21.177 Y53.760 E4.5344
G1 X20.498 Y53.760 E0.0339
G1 X-43.429 Y-10.167 E4.5104
G1 X-43.768 Y-9.827 E0.0239
G1 X19.819 Y53.760 E4.4864
G1 X19.140 Y53.760 E0.0339
G1 X-44.106 Y-9.486 E4.4624
G1 X-44.444 Y-9.146 E0.0239
G1 X18.461 Y53.760 E4.4383
G1 X17.782 Y53.760 E0.0339
G1 X-44.783 Y-8.805 E4.4143
G1 X-45.121 Y-8.464 E0.0239
G1 X17.104 Y53.760 E4.3903
G1 X16.425 Y53.760 E0.0339
G1 X-45.459 Y-8.124 E4.3662
G1 X-45.797 Y-7.783 E0.0239
G1 X15.746 Y53.760 E4.3422
G1 X15.067 Y53.760 E0.0339
G1 X-46.136 Y-7.443 E4.3182
G1 X-46.474 Y-7.102 E0.0239
G1 X14.388 Y53.760 E4.2942
G1 X13.709 Y53.760 E0.0339
G1 X-46.812 Y-6.762 E4.2701
G1 X-47.151 Y-6.421 E0.0239
G1 X13.031 Y53.760 E4.2461
G1 X12.352 Y53.760 E0.0339
G1 X-47.489 Y-6.081 E4.2221
G1 X-47.827 Y-5.740 E0.0239
G1 X11.673 Y53.760 E4.1981
G1 X10.994 Y53.760 E0.0339
G1 X-48.166 Y-5.400 E4.1740
G1 X-48.504 Y-5.059 E0.0239
G1 X10.315 Y53.760 E4.1500
G1 X9.637 Y53.760 E0.0339
G1 X-48.842 Y-4.719 E4.1260
G1 X-49.180 Y-4.378 E0.0239
G1 X8.958 Y53.760 E4.1020
G1 X8.279 Y53.760 E0.0339
G1 X-49.519 Y-4.038 E4.0779
G1 X-49.857 Y-3.697 E0.0239
G1 X7.600 Y53.760 E4.0539
G1 X6.921 Y53.760 E0.0339
G1 X-50.195 Y-3.357 E4.0299
G1 X-50.534 Y-3.016 E0.0239
G1 X6.242 Y53.760 E4.0059
G1 X5.564 Y53.760 E0.0339
G1 X-50.872 Y-2.676 E3.9818
G1 X-51.210 Y-2.335 E0.0239
G1 X4.885 Y53.760 E3.9578
G1 X4.206 Y53.760 E0.0339
G1 X-51.549 Y-1.995 E3.9338
G1 X-51.887 Y-1.654 E0.0239
G1 X3.527 Y53.760 E3.9098
G1 X2.848 Y53.760 E0.0339
G1 X-52.225 Y-1.314 E3.8857
G1 X-52.564 Y-0.973 E0.0239
G1 X2.170 Y53.760 E3.8617
G1 X1.491 Y53.760 E0.0339
G1 X-52.902 Y-0.632 E3.8377
G1 X-53.240 Y-0.292 E0.0239
G1 X0.812 Y53.760 E3.8137
G1 X0.133 Y53.760 E0.0339
G1 X-53.578 Y0.049 E3.7896
G1 X-53.917 Y0.389 E0.0239
G1 X-0.546 Y53.760 E3.7656
G1 X-1.225 Y53.760 E0.0339
G1 X-54.255 Y0.730 E3.7416
